svgs/light/file-invoice.svg

<svg xmlns="http://www.w3.org/2000/svg" viewBox="0 0 384 512"><!-- Font Awesome Pro 6.0.0-alpha2 by @fontawesome - https://fontawesome.com License - https://fontawesome.com/license (Commercial License) --><path d="M80 160H144C152.844 160 160 152.844 160 144S152.844 128 144 128H80C71.156 128 64 135.156 64 144S71.156 160 80 160ZM80 96H144C152.844 96 160 88.844 160 80S152.844 64 144 64H80C71.156 64 64 71.156 64 80S71.156 96 80 96ZM365.256 125.254L258.746 18.746C246.744 6.742 230.465 0 213.49 0H64C28.654 0 0 28.654 0 64V448C0 483.346 28.654 512 64 512H320C355.348 512 384 483.346 384 448V170.51C384 153.535 377.258 137.258 365.256 125.254ZM224 34.076C228.477 35.643 232.666 37.922 236.119 41.375L342.627 147.879C346.08 151.332 348.357 155.523 349.924 160H240C231.188 160 224 152.828 224 144V34.076ZM352 448C352 465.645 337.645 480 320 480H64C46.355 480 32 465.645 32 448V64C32 46.355 46.355 32 64 32H192V144C192 170.469 213.531 192 240 192H352V448ZM64 272V336C64 353.641 78.359 368 96 368H288C305.641 368 320 353.641 320 336V272C320 254.359 305.641 240 288 240H96C78.359 240 64 254.359 64 272ZM288 336H96V272H288V336ZM304 416H240C231.156 416 224 423.156 224 432S231.156 448 240 448H304C312.844 448 320 440.844 320 432S312.844 416 304 416Z"/></svg>

<svg xmlns="http://www.w3.org/2000/svg" viewBox="0 0 384 512"><!--! Font Awesome Pro 6.3.0 by @fontawesome - https://fontawesome.com License - https://fontawesome.com/license (Commercial License) Copyright 2023 Fonticons, Inc. --><path d="M80 160h64C152.8 160 160 152.8 160 144S152.8 128 144 128h-64C71.16 128 64 135.2 64 144S71.16 160 80 160zM80 96h64C152.8 96 160 88.84 160 80S152.8 64 144 64h-64C71.16 64 64 71.16 64 80S71.16 96 80 96zM365.3 125.3l-106.5-106.5C246.7 6.742 230.5 0 213.5 0H64C28.65 0 0 28.65 0 64l.0065 384c0 35.35 28.65 64 64 64H320c35.35 0 64-28.65 64-64V170.5C384 153.5 377.3 137.3 365.3 125.3zM224 34.08c4.477 1.566 8.666 3.846 12.12 7.299l106.5 106.5C346.1 151.3 348.4 155.5 349.9 160H240C231.2 160 224 152.8 224 144V34.08zM352 448c0 17.64-14.36 32-32 32H64c-17.64 0-32-14.36-32-32V64c0-17.64 14.36-32 32-32h128v112C192 170.5 213.5 192 240 192H352V448zM64 272v64c0 17.64 14.36 32 32 32h192c17.64 0 32-14.36 32-32v-64c0-17.64-14.36-32-32-32H96C78.36 240 64 254.4 64 272zM288 336H96v-64h192V336zM304 416h-64c-8.844 0-16 7.156-16 16s7.156 16 16 16h64c8.844 0 16-7.156 16-16S312.8 416 304 416z"/></svg>
